X:BFS 14-04 57
T:
M:4/4
K:D
P:A
F2G2| A2d2c2d2 B4A4 |1,3 ABAGF2G2 A4 :|2,4 ABAGF2E2 D4 :|
P:B
D2E2| F2F2F2EF G2G2G2FG |1,3 A2A2ABAG F2E2 :|2,4 ABAGF2E2 D4 :|

% Into...

